X:1
T:The Happy Farmer
T:The Happy Farmer 
T:Rober Schumann
T:Fröhlicher Landmann von der Arbeit zurückkehrend Album für die Jugend, Op. 68 No 10 
C:Rober Schumann
%%score 1 { ( 2 4 ) | ( 3 5 ) }
L:1/8
Q:1/4=100
M:4/4
K:G
V:1 treble nm="Violin"
V:2 treble nm="Piano"
V:4 treble 
V:3 bass 
V:5 bass 
V:1
"^Fresh and lively" z | z8 | z8 | z8 | z4 z2 z D |!f! (G3 B) d3 (G | cege) d3 (B | cAD)(c BGD)(B | %8
 F2 E2 D2) z D | (G3 B) d3 (G | cege d3) (B | cAD)(c BGD)(B | F2 E2 D2) z (D | !>!c3 B) A3 (D | %14
 !>!cB)AG A3 (D | G3 B) d3 (G | cege d3) (B | cAD)(c BGD)(B | A2 F2) G2 z (D | !>!c3 B) A3 (D | %20
 !>!cB)AG A3 (D | G3 B) d3 (G | cege d3) (B | cAD)(c BGD)(B | A2 F2) G2 z2 |] %25
V:2
!f! z | z [DGB][DGB] z z [GBd][GBd] z | z [Gce][ce] z z [GBd][GBd] z | %3
 z [Fcd] [Fcd]2 z [DGB] [DGB]2 | z [DA] z [GA^c] z [FAd] [FAd]2 | z [DGB][DGB] z z [GBd][GBd] z | %6
 z [Gce][ce] z z [GBd][GBd] z | z [Fcd] [Fcd]2 z [DGB] [DGB]2 | z [DA] z [GA^c] z [FAd] [FAd]2 | %9
 z [DGB][DGB] z z [GBd][GBd] z | z [Gce][ce] z z [GBd][GBd] z | z [Fcd] [Fcd]2 z [DGB] [DGB]2 | %12
 z [DA] z [GA^c] z [FAd][FAd]!mf! (D | !>!c3 B A3) (D | !>!c.B.A.G A3)!f! (D | G3) (B d3) (G | %16
 cege d3) z | z [Fcd] [Fcd]2 z [DGB][DGB][DGB] | z [EA] z [CD] z [B,DG][B,DG]!mf! (D | %19
 !>!c3 B A3) (D | !>!c.B.A.G A3)!f! (D | G3) (B d3) (G | cege d3) z | %23
 z [Fcd] [Fcd]2 z [DGB][DGB][DGB] | z [EA] z [CD] z [B,DG][B,DG] z |] %25
V:3
 (D, | G,3 B, D3) (G, | CEGE D3) (B, | CA,D,C B,G,D,B, | F,2 E,2 D,2) z (D, | G,3 B, D3) (G, | %6
 CEGE D3) (B, | CA,D,C B,G,D,B, | F,2 E,2 D,2) z (D, | G,3 B, D3) (G, | CEGE D3) (B, | %11
 CA,D,C B,G,D,B, | F,2 E,2 D,2) z (D, | !>!A,3 G, F,3) (D, | !>!A,.G,.F,.E, F,3) (D, | %15
 G,3) (B, D3) (G, | CEGE D3) (B, | CA,D,C B,G,D,B, | A,2 F,2 G,2) z (D, | !>!A,3 G, F,3) (D, | %20
 !>!A,.G,.F,.E, F,3) (D, | G,3) (B, D3) (G, | CEGE D3) (B, | CA,D,C B,G,D,B, | A,2 F,2 G,2) z2 |] %25
V:4
 x | x8 | x8 | x8 | x8 | x8 | x8 | x8 | x8 | x8 | x8 | x8 | x8 | z [DF][DF] z z [CD][CD] z | %14
 z DD^C z DD z | z [B,D][B,D] z z [GB][GB] z | z [Gc] z [Gc] z [GB][GB] x | x8 | x8 | %19
 z [DF][DF] z z [CD][CD] z | z DD^C z DD z | z [B,D][B,D] z z [GB][GB] z | %22
 z [Gc] z [Gc] z [GB][GB] x | x8 | x8 |] %25
V:5
 x | x8 | x8 | x8 | x8 | x8 | x8 | x8 | x8 | x8 | x8 | x8 | x8 | x8 | x8 | x8 | x8 | x8 | %18
 C,2 D,2 G,2 x2 | x8 | x8 | x8 | x8 | x8 | C,2 D,2 G,2 x2 |] %25

